X: 21127
T: Karuna
R: waltz
M: 3/4
K: Dmajor
AAB|d3 A (3def|eA A2 ag|f2 fa (3fed|B3
dcd|AddA (3def|eA A2 ag|(3fga fd e<f|d3:|
dcd|F3 dcd|G3 dcd|A4 FG|E3
dcd|F3 dcd|G3 AAG|(3FGA FD E<F|D3
dcd|F3 dcd|G3 dcd|A4 FG|E3
AAG|AddA (3def|eA A2 ag|(3fga fd e<f|d3||

